dist/images/manual/card5.svg

<svg width="70" height="45" viewBox="0 0 70 45" fill="none" xmlns="http://www.w3.org/2000/svg">
<path d="M65.3327 0H3.97059C1.77022 0 0 1.77022 0 3.97059V17.2059C0 17.9338 0.595588 18.5294 1.32353 18.5294C3.5239 18.5294 5.29412 20.2996 5.29412 22.5C5.29412 24.7004 3.5239 26.4706 1.32353 26.4706C0.595588 26.4706 0 27.0662 0 27.7941V41.0294C0 43.2298 1.77022 45 3.97059 45H65.3327C67.5331 45 69.3033 43.2298 69.3033 41.0294V27.7941C69.3033 27.0662 68.7077 26.4706 67.9798 26.4706C65.7794 26.4706 64.0092 24.7004 64.0092 22.5C64.0092 20.2996 65.7794 18.5294 67.9798 18.5294C68.7077 18.5294 69.3033 17.9338 69.3033 17.2059V3.97059C69.3033 1.77022 67.5331 0 65.3327 0ZM66.6563 16.0147C63.5791 16.6434 61.3621 19.3566 61.3621 22.5C61.3621 25.6434 63.5791 28.3566 66.6563 28.9853V41.0294C66.6563 41.7574 66.0607 42.3529 65.3327 42.3529H3.97059C3.24265 42.3529 2.64706 41.7574 2.64706 41.0294V28.9853C5.72427 28.3566 7.94118 25.6434 7.94118 22.5C7.94118 19.3566 5.72427 16.6434 2.64706 16.0147V3.97059C2.64706 3.24265 3.24265 2.64706 3.97059 2.64706H65.3327C66.0607 2.64706 66.6563 3.24265 66.6563 3.97059V16.0147Z" fill="#5B1A0D"/>
<path d="M27.381 18.9158H25.6401C25.7549 18.5647 25.8123 18.1745 25.8123 17.7844C25.8123 15.6971 24.1479 14 22.1009 14C21.1827 14 20.3409 14.3511 19.6905 14.9168C19.04 14.3511 18.1983 14 17.28 14C15.2331 14 13.5687 15.6971 13.5687 17.7844C13.5687 18.1745 13.6261 18.5647 13.7409 18.9158H12V33H27.381V18.9158ZM22.1009 16.653C22.7131 16.653 23.2105 17.1602 23.2105 17.7844C23.2105 18.4086 22.7131 18.9158 22.1009 18.9158H20.9914V17.7844C20.9914 17.1602 21.4887 16.653 22.1009 16.653ZM16.1705 17.7844C16.1705 17.1602 16.6679 16.653 17.28 16.653C17.8922 16.653 18.3896 17.1602 18.3896 17.7844V18.9158H17.28C16.6679 18.9158 16.1705 18.4086 16.1705 17.7844ZM14.5826 21.5493H18.3705V30.3275H14.5826V21.5493ZM24.7792 30.347H20.9914V21.5688H24.7792V30.347Z" fill="$red"/>
<path d="M45.984 32V29.3025H44V26.8571H45.984V24.8908H44V21.7647H45.984V14H51.6385C53.9201 14 55.5817 14.4706 56.6233 15.4118C57.6815 16.3529 58.2105 17.6471 58.2105 19.2941C58.2105 20.2689 57.9956 21.1849 57.5657 22.042C57.1359 22.8992 56.4166 23.5882 55.4081 24.1092C54.4161 24.6303 53.0603 24.8908 51.3409 24.8908H49.7289V26.8571H53.5481V29.3025H49.7289V32H45.984ZM49.7289 21.7647H50.9689C52.027 21.7647 52.8619 21.5798 53.4737 21.2101C54.102 20.8403 54.4161 20.2437 54.4161 19.4202C54.4161 17.8908 53.4241 17.1261 51.4401 17.1261H49.7289V21.7647Z" fill="white"/>
<g clip-path="url(#clip0_363_903)">
<path d="M34.9999 38.0769H38.5356V34.6154H34.9999V38.0769Z" fill="#5B1A0D"/>
<path d="M34.9999 31.1538H38.5356V27.6923H34.9999V31.1538Z" fill="#5B1A0D"/>
<path d="M34.9999 24.2308H38.5356V20.7692H34.9999V24.2308Z" fill="#5B1A0D"/>
<path d="M34.9999 17.3077H38.5356V13.8462H34.9999V17.3077Z" fill="#5B1A0D"/>
<path d="M34.9999 10.3846H38.5356V6.9231H34.9999V10.3846Z" fill="#5B1A0D"/>
<path d="M34.9999 3.46154H38.5356V0H34.9999V3.46154Z" fill="#5B1A0D"/>
<path d="M34.9999 45H38.5356V41.5385H34.9999V45Z" fill="#5B1A0D"/>
</g>
<defs>
<clipPath id="clip0_363_903">
<rect width="3.53571" height="45" fill="white" transform="matrix(-1 0 0 1 38.5356 0)"/>
</clipPath>
</defs>
</svg>

<svg width="70" height="45" fill="none" xmlns="http://www.w3.org/2000/svg"><path d="M65.333 0H3.97C1.77 0 0 1.77 0 3.97v13.236c0 .728.596 1.323 1.324 1.323 2.2 0 3.97 1.77 3.97 3.971 0 2.2-1.77 3.97-3.97 3.97-.728 0-1.324.596-1.324 1.324V41.03C0 43.23 1.77 45 3.97 45h61.363c2.2 0 3.97-1.77 3.97-3.97V27.793c0-.728-.595-1.323-1.323-1.323-2.2 0-3.97-1.77-3.97-3.971 0-2.2 1.77-3.97 3.97-3.97.728 0 1.323-.596 1.323-1.324V3.97c0-2.2-1.77-3.971-3.97-3.971zm1.323 16.015a6.624 6.624 0 0 0-5.294 6.485 6.624 6.624 0 0 0 5.294 6.485V41.03c0 .728-.595 1.324-1.323 1.324H3.97a1.327 1.327 0 0 1-1.324-1.324V28.985A6.624 6.624 0 0 0 7.941 22.5a6.624 6.624 0 0 0-5.294-6.485V3.97c0-.728.596-1.324 1.324-1.324h61.362c.728 0 1.323.596 1.323 1.324v12.044z" fill="#5B1A0D"/><path d="M27.381 18.916h-1.74a3.68 3.68 0 0 0 .171-1.132c0-2.087-1.664-3.784-3.711-3.784a3.67 3.67 0 0 0-2.41.917A3.67 3.67 0 0 0 17.28 14c-2.047 0-3.711 1.697-3.711 3.784 0 .39.057.78.172 1.132H12V33h15.381V18.916zm-5.28-2.263c.612 0 1.11.507 1.11 1.131 0 .625-.498 1.132-1.11 1.132h-1.11v-1.132c0-.624.498-1.131 1.11-1.131zm-5.93 1.131c0-.624.497-1.131 1.109-1.131s1.11.507 1.11 1.131v1.132h-1.11c-.612 0-1.11-.507-1.11-1.132zm-1.588 3.765h3.787v8.779h-3.787v-8.779zm10.196 8.798h-3.788v-8.778h3.788v8.778z" fill="$red"/><path d="M45.984 32v-2.698H44v-2.445h1.984v-1.966H44v-3.126h1.984V14h5.654c2.282 0 3.944.47 4.985 1.412 1.059.94 1.588 2.235 1.588 3.882 0 .975-.215 1.89-.645 2.748-.43.857-1.15 1.546-2.158 2.067-.992.521-2.348.782-4.067.782h-1.612v1.966h3.82v2.445h-3.82V32h-3.745zm3.745-10.235h1.24c1.058 0 1.893-.185 2.505-.555.628-.37.942-.966.942-1.79 0-1.53-.992-2.294-2.976-2.294H49.73v4.639z" fill="#fff"/><g clip-path="url(#a)" fill="#5B1A0D"><path d="M35 38.077h3.536v-3.462H35v3.462zM35 31.154h3.536v-3.462H35v3.462zM35 24.23h3.536v-3.46H35v3.46zM35 17.308h3.536v-3.462H35v3.462zM35 10.385h3.536V6.923H35v3.462zM35 3.462h3.536V0H35v3.462zM35 45h3.536v-3.462H35V45z"/></g><defs><clipPath id="a"><path fill="#fff" transform="matrix(-1 0 0 1 38.536 0)" d="M0 0h3.536v45H0z"/></clipPath></defs></svg>
